!!!OTL: "Aelplers Fruehlingslied" SO KOMMT SIE  DENN SCHOEN WIEDER
!!!ARE: Europa, Mitteleuropa, Tirol
!!!SCT: Z1264
!!!YEM: Copyright 1995, estate of Helmut Schaffrath.
**kern
*ICvox
*Ivox
*M2/4
*k[f#c#]
*D:
{8A
=1
8.A
16A
8G
8E
=2
8F#
8A
8d}
{8A
=3
8A
8g
8e
8c#
=4
4d}
{4B
=5
4A
4C#
=6
4D
4r}
=7
{8A
8A
8G
8E
=8
8F#
8A
8d
8A
=9
8A
8f#
8e
8c#
=10
4d}
{4B
=11
4A
4C#
=12
4D
4r}
=13
{4e
4A
=14
8d
8f#
4a}
=15
{8e
8A
4e
=16
8f#
8A
4d}
=17
{4e
4A
=18
8d
8f#
4a}
=19
{8g
8A
4e
=20
4d
8r}
==
!!!AGN: Natur und Welt
!!!ONB: ESAC (Essen Associative Code) Database: ZUCCAL
!!!AMT: simple duple
!!!AIN: vox
!!!EED: Helmut Schaffrath
!!!EEV: 1.0
*-
